; Auto-generated nozzle path via Object Detection
G21 ; mm mode
G90 ; absolute
G1 F1200
G1 X8.15 Y100.00 E0.02
G1 X8.77 Y95.70 E0.02
G1 X9.26 Y91.40 E0.02
G1 X9.88 Y88.17 E0.02
G1 X68.27 Y35.48 E0.02
G1 X68.64 Y33.33 E0.02
G1 X69.14 Y31.18 E0.02
G1 X69.63 Y29.03 E0.02
G1 X70.00 Y27.96 E0.02
G1 X70.49 Y26.88 E0.02
G1 X70.86 Y24.73 E0.02
G1 X71.23 Y23.66 E0.02
G1 X71.36 Y25.81 E0.02
G1 X71.23 Y27.96 E0.02
G1 X71.48 Y26.88 E0.02
G1 X71.73 Y24.73 E0.02
G1 X71.98 Y16.13 E0.02
G1 X71.98 Y11.83 E0.02
G1 X71.73 Y12.90 E0.02
G1 X71.36 Y15.05 E0.02
G1 X71.36 Y11.83 E0.02
G1 X71.48 Y7.53 E0.02
G1 X71.48 Y6.45 E0.02
G1 X71.23 Y6.45 E0.02
G1 X71.11 Y5.38 E0.02
G1 X70.99 Y5.38 E0.02
G1 X71.11 Y5.38 E0.02
G1 X71.11 Y5.38 E0.02
G1 X71.11 Y6.45 E0.02
G1 X70.99 Y8.60 E0.02
G1 X70.99 Y8.60 E0.02
G1 X71.23 Y8.60 E0.02
G1 X69.38 Y8.60 E0.02
G1 X69.38 Y9.68 E0.02
G1 X69.38 Y10.75 E0.02
G1 X69.51 Y11.83 E0.02
G1 X69.51 Y11.83 E0.02
G1 X69.63 Y12.90 E0.02
G1 X69.75 Y13.98 E0.02
G1 X69.88 Y15.05 E0.02
G1 X70.25 Y15.05 E0.02
G1 X70.37 Y15.05 E0.02
G1 X70.49 Y18.28 E0.02
G1 X70.49 Y20.43 E0.02
G1 X70.49 Y21.51 E0.02
G1 X70.62 Y22.58 E0.02
G1 X70.74 Y23.66 E0.02
G1 X70.86 Y24.73 E0.02
G1 X71.23 Y22.58 E0.02
G1 X71.48 Y22.58 E0.02
G1 X71.73 Y23.66 E0.02
G1 X71.85 Y22.58 E0.02
G1 X72.22 Y21.51 E0.02
G1 X72.59 Y21.51 E0.02
G1 X72.96 Y22.58 E0.02
G1 X72.96 Y23.66 E0.02
G1 X73.09 Y25.81 E0.02
G1 X73.21 Y25.81 E0.02
G1 X73.58 Y25.81 E0.02
G1 X76.30 Y24.73 E0.02
G1 X76.67 Y24.73 E0.02
G1 X76.91 Y25.81 E0.02
G1 X77.16 Y25.81 E0.02
G1 X77.41 Y25.81 E0.02
G1 X77.78 Y24.73 E0.02
G1 X78.02 Y24.73 E0.02
G1 X78.27 Y23.66 E0.02
G1 X78.40 Y24.73 E0.02
G1 X78.64 Y23.66 E0.02
G1 X78.89 Y23.66 E0.02
G1 X79.01 Y24.73 E0.02
G1 X79.14 Y24.73 E0.02
G1 X79.38 Y24.73 E0.02
G1 X79.75 Y23.66 E0.02
G1 X80.12 Y22.58 E0.02
G1 X80.37 Y22.58 E0.02
G1 X80.62 Y21.51 E0.02
G1 X79.01 Y19.35 E0.02
G1 X79.51 Y16.13 E0.02
G1 X79.88 Y15.05 E0.02
G1 X80.00 Y15.05 E0.02
G1 X80.25 Y13.98 E0.02
G1 X80.86 Y11.83 E0.02
G1 X81.48 Y8.60 E0.02
G1 X81.85 Y7.53 E0.02
G1 X82.10 Y6.45 E0.02
G1 X82.59 Y5.38 E0.02
G1 X83.09 Y3.23 E0.02
G1 X83.46 Y1.08 E0.02
G1 X83.83 Y0.00 E0.02
G1 X84.07 Y0.00 E0.02
G1 X84.20 Y0.00 E0.02
G1 X84.20 Y2.15 E0.02
G1 X84.20 Y3.23 E0.02
G1 X84.32 Y4.30 E0.02
G1 X84.69 Y4.30 E0.02
G1 X84.94 Y4.30 E0.02
G1 X85.06 Y4.30 E0.02
G1 X85.31 Y5.38 E0.02
G1 X87.90 Y5.38 E0.02
G1 X88.27 Y3.23 E0.02
G1 X86.42 Y3.23 E0.02
G1 X86.67 Y3.23 E0.02
G1 X86.79 Y4.30 E0.02
G1 X87.04 Y4.30 E0.02
G1 X87.16 Y4.30 E0.02
G1 X87.28 Y5.38 E0.02
G1 X87.28 Y7.53 E0.02
G1 X87.41 Y8.60 E0.02
G1 X87.65 Y7.53 E0.02
G1 X88.02 Y7.53 E0.02
G1 X88.15 Y7.53 E0.02
G1 X88.27 Y8.60 E0.02
G1 X88.52 Y9.68 E0.02
G1 X88.77 Y9.68 E0.02
G1 X89.01 Y9.68 E0.02
G1 X89.26 Y10.75 E0.02
G1 X89.26 Y11.83 E0.02
G1 X89.26 Y13.98 E0.02
G1 X89.51 Y15.05 E0.02
G1 X89.75 Y15.05 E0.02
G1 X90.00 Y16.13 E0.02
G1 X90.37 Y16.13 E0.02
G1 X90.62 Y17.20 E0.02
G1 X90.86 Y19.35 E0.02
G1 X91.23 Y19.35 E0.02
G1 X91.85 Y18.28 E0.02
G1 X92.35 Y17.20 E0.02
G1 X92.59 Y17.20 E0.02
G1 X92.84 Y18.28 E0.02
G1 X92.96 Y18.28 E0.02
G1 X93.33 Y18.28 E0.02
G1 X93.46 Y18.28 E0.02
G1 X93.70 Y19.35 E0.02
G1 X93.95 Y19.35 E0.02
G1 X94.20 Y20.43 E0.02
G1 X97.16 Y20.43 E0.02
G1 X97.41 Y20.43 E0.02
G1 X97.65 Y20.43 E0.02
G1 X97.78 Y21.51 E0.02
G1 X98.02 Y22.58 E0.02
G1 X96.05 Y21.51 E0.02
G1 X96.42 Y22.58 E0.02
G1 X96.67 Y22.58 E0.02
G1 X96.91 Y23.66 E0.02
G1 X97.28 Y23.66 E0.02
G1 X97.53 Y22.58 E0.02
G1 X97.90 Y22.58 E0.02
G1 X98.15 Y22.58 E0.02
G1 X98.40 Y22.58 E0.02
G1 X98.52 Y23.66 E0.02
G1 X98.64 Y24.73 E0.02
G1 X98.89 Y24.73 E0.02
G1 X99.14 Y24.73 E0.02
G1 X99.26 Y25.81 E0.02
G1 X99.38 Y25.81 E0.02
G1 X99.63 Y25.81 E0.02
G1 X99.75 Y25.81 E0.02
G1 X99.63 Y25.81 E0.02
G1 X99.88 Y26.88 E0.02
G1 X100.00 Y26.88 E0.02
G1 X0.12 Y27.96 E0.02
G1 X0.12 Y27.96 E0.02
G1 X0.12 Y29.03 E0.02
G1 X0.12 Y30.11 E0.02
G1 X0.00 Y30.11 E0.02
G1 X0.12 Y30.11 E0.02
G1 X0.12 Y29.03 E0.02
G1 X0.25 Y30.11 E0.02
G1 X0.12 Y31.18 E0.02
G1 X0.00 Y31.18 E0.02
G1 X0.00 Y31.18 E0.02
G1 X0.12 Y31.18 E0.02
G1 X0.25 Y31.18 E0.02
G1 X0.25 Y30.11 E0.02
G1 X0.25 Y30.11 E0.02
G1 X0.25 Y30.11 E0.02
G1 X0.37 Y30.11 E0.02
G1 X0.37 Y31.18 E0.02
G1 X0.37 Y31.18 E0.02
G1 X0.49 Y31.18 E0.02
G1 X0.49 Y32.26 E0.02
G1 X0.49 Y32.26 E0.02
G1 X0.49 Y32.26 E0.02
G1 X0.49 Y33.33 E0.02
G1 X0.49 Y33.33 E0.02
G1 X0.62 Y32.26 E0.02
G1 X0.62 Y31.18 E0.02
G1 X0.62 Y32.26 E0.02
G1 X0.62 Y33.33 E0.02
G1 X0.62 Y34.41 E0.02
G1 X0.62 Y33.33 E0.02
G1 X18.27 Y34.41 E0.02
G1 X18.52 Y34.41 E0.02
G1 X18.64 Y35.48 E0.02
G1 X18.89 Y36.56 E0.02
G1 X19.01 Y36.56 E0.02
G1 X19.14 Y36.56 E0.02
G1 X19.26 Y36.56 E0.02
G1 X19.26 Y36.56 E0.02
G1 X18.77 Y36.56 E0.02
G1 X19.01 Y36.56 E0.02
G1 X19.26 Y37.63 E0.02
G1 X19.38 Y38.71 E0.02
G1 X19.63 Y38.71 E0.02
G1 X19.63 Y37.63 E0.02
G1 X19.63 Y38.71 E0.02
G1 X19.75 Y39.78 E0.02
G1 X19.63 Y39.78 E0.02
G1 X19.63 Y39.78 E0.02
G1 X19.75 Y38.71 E0.02
G1 X19.88 Y38.71 E0.02
G1 X20.00 Y37.63 E0.02
G1 X20.00 Y38.71 E0.02
G1 X20.00 Y39.78 E0.02
G1 X20.12 Y40.86 E0.02
G1 X1.36 Y41.94 E0.02
G1 X80.25 Y37.63 E0.02
G1 X57.41 Y39.78 E0.02
G1 X39.75 Y41.94 E0.02
G1 X32.96 Y43.01 E0.02
G1 X33.09 Y44.09 E0.02
G1 X33.09 Y45.16 E0.02
G1 X33.21 Y48.39 E0.02
G1 X33.21 Y52.69 E0.02
G1 X32.96 Y55.91 E0.02
G1 X32.84 Y60.22 E0.02
G1 X32.72 Y65.59 E0.02
G1 X32.84 Y66.67 E0.02