; Auto-generated nozzle path via Object Detection
G21 ; mm mode
G90 ; absolute
G1 F1200
G1 X64.56 Y40.32 E0.02
G1 X65.02 Y37.10 E0.02
G1 X65.49 Y35.48 E0.02
G1 X65.64 Y38.71 E0.02
G1 X65.49 Y41.94 E0.02
G1 X65.79 Y41.94 E0.02
G1 X66.10 Y37.10 E0.02
G1 X66.41 Y24.19 E0.02
G1 X66.41 Y17.74 E0.02
G1 X66.10 Y19.35 E0.02
G1 X65.64 Y22.58 E0.02
G1 X65.64 Y19.35 E0.02
G1 X65.79 Y11.29 E0.02
G1 X65.79 Y9.68 E0.02
G1 X65.49 Y9.68 E0.02
G1 X65.33 Y8.06 E0.02
G1 X65.18 Y8.06 E0.02
G1 X65.33 Y8.06 E0.02
G1 X65.49 Y8.06 E0.02
G1 X65.33 Y9.68 E0.02
G1 X65.18 Y12.90 E0.02
G1 X65.18 Y14.52 E0.02
G1 X65.49 Y12.90 E0.02
G1 X65.64 Y14.52 E0.02
G1 X63.17 Y14.52 E0.02
G1 X63.17 Y16.13 E0.02
G1 X63.33 Y17.74 E0.02
G1 X63.33 Y19.35 E0.02
G1 X63.48 Y19.35 E0.02
G1 X63.64 Y20.97 E0.02
G1 X63.79 Y22.58 E0.02
G1 X64.25 Y22.58 E0.02
G1 X64.56 Y24.19 E0.02
G1 X64.56 Y27.42 E0.02
G1 X64.56 Y30.65 E0.02
G1 X64.71 Y32.26 E0.02
G1 X64.87 Y33.87 E0.02
G1 X64.87 Y35.48 E0.02
G1 X65.02 Y37.10 E0.02
G1 X65.49 Y33.87 E0.02
G1 X65.79 Y33.87 E0.02
G1 X66.10 Y35.48 E0.02
G1 X66.26 Y33.87 E0.02
G1 X66.72 Y32.26 E0.02
G1 X67.18 Y32.26 E0.02
G1 X67.64 Y33.87 E0.02
G1 X67.64 Y35.48 E0.02
G1 X67.80 Y38.71 E0.02
G1 X67.95 Y38.71 E0.02
G1 X72.57 Y38.71 E0.02
G1 X72.88 Y38.71 E0.02
G1 X73.19 Y38.71 E0.02
G1 X73.65 Y37.10 E0.02
G1 X73.96 Y37.10 E0.02
G1 X74.27 Y35.48 E0.02
G1 X74.42 Y37.10 E0.02
G1 X74.73 Y35.48 E0.02
G1 X75.04 Y35.48 E0.02
G1 X75.19 Y37.10 E0.02
G1 X75.35 Y37.10 E0.02
G1 X75.65 Y37.10 E0.02
G1 X76.12 Y35.48 E0.02
G1 X76.58 Y33.87 E0.02
G1 X76.89 Y33.87 E0.02
G1 X77.20 Y32.26 E0.02
G1 X77.66 Y29.03 E0.02
G1 X75.81 Y24.19 E0.02
G1 X76.27 Y22.58 E0.02
G1 X76.43 Y22.58 E0.02
G1 X76.73 Y22.58 E0.02
G1 X77.50 Y17.74 E0.02
G1 X78.27 Y12.90 E0.02
G1 X78.74 Y11.29 E0.02
G1 X79.04 Y9.68 E0.02
G1 X79.66 Y8.06 E0.02
G1 X80.28 Y4.84 E0.02
G1 X80.74 Y1.61 E0.02
G1 X81.20 Y0.00 E0.02
G1 X81.51 Y0.00 E0.02
G1 X86.75 Y4.84 E0.02
G1 X84.75 Y4.84 E0.02
G1 X84.90 Y6.45 E0.02
G1 X85.21 Y6.45 E0.02
G1 X85.36 Y6.45 E0.02
G1 X85.52 Y8.06 E0.02
G1 X85.52 Y11.29 E0.02
G1 X85.67 Y12.90 E0.02
G1 X85.98 Y11.29 E0.02
G1 X86.44 Y11.29 E0.02
G1 X86.59 Y11.29 E0.02
G1 X86.75 Y12.90 E0.02
G1 X87.06 Y14.52 E0.02
G1 X87.37 Y14.52 E0.02
G1 X87.67 Y14.52 E0.02
G1 X98.31 Y33.87 E0.02
G1 X98.77 Y33.87 E0.02
G1 X99.08 Y33.87 E0.02
G1 X99.38 Y33.87 E0.02
G1 X99.54 Y35.48 E0.02
G1 X99.69 Y37.10 E0.02
G1 X100.00 Y37.10 E0.02
G1 X0.31 Y54.84 E0.02
G1 X0.46 Y54.84 E0.02
G1 X0.62 Y54.84 E0.02
G1 X0.62 Y54.84 E0.02
G1 X0.00 Y54.84 E0.02
G1 X0.31 Y54.84 E0.02
G1 X0.62 Y56.45 E0.02
G1 X0.77 Y58.06 E0.02
G1 X1.08 Y58.06 E0.02
G1 X1.08 Y56.45 E0.02
G1 X1.08 Y58.06 E0.02
G1 X1.23 Y59.68 E0.02
G1 X1.08 Y59.68 E0.02
G1 X1.08 Y59.68 E0.02
G1 X1.23 Y58.06 E0.02
G1 X1.39 Y58.06 E0.02
G1 X1.54 Y58.06 E0.02
G1 X1.54 Y58.06 E0.02
G1 X1.54 Y59.68 E0.02
G1 X1.69 Y61.29 E0.02
G1 X76.89 Y56.45 E0.02
G1 X26.19 Y62.90 E0.02
G1 X17.72 Y64.52 E0.02
G1 X17.87 Y66.13 E0.02
G1 X17.87 Y67.74 E0.02
G1 X18.03 Y74.19 E0.02
G1 X18.03 Y79.03 E0.02
G1 X17.72 Y83.87 E0.02
G1 X17.57 Y91.94 E0.02
G1 X17.41 Y98.39 E0.02
G1 X17.57 Y100.00 E0.02